svg/color/panwon.svg

<svg width="40" height="40" viewBox="0 0 40 40" fill="none" xmlns="http://www.w3.org/2000/svg">
<g clip-path="url(#clip0_820_3852)">
<path d="M20 0C31.0457 0 40 8.9543 40 20C40 31.0457 31.0457 40 20 40C8.95431 40 7.90517e-06 31.0457 0 20C6.58765e-07 8.95431 8.95431 1.97595e-06 20 0Z" fill="#FCDCD3"/>
<path d="M26 6C30.4183 6 34 9.58172 34 14V26C34 30.4183 30.4183 34 26 34H14C9.58172 34 6 30.4183 6 26V14C6 9.58172 9.58172 6 14 6H26Z" fill="#F04E23"/>
<path d="M18.565 22.8691L19.9858 24.29L17.1308 27.145L14.275 24.29L21.435 17.1308L20.0142 15.71L22.8692 12.855L25.725 15.71L18.565 22.8691ZM10 20.0141L12.855 22.8691L20.0142 15.71L17.1592 12.855L10 20.0141ZM19.9858 24.2891L22.8408 27.145L30 19.9858L27.145 17.1308L19.9858 24.2891Z" fill="white"/>
</g>
<defs>
<clipPath id="clip0_820_3852">
<rect width="40" height="40" fill="white"/>
</clipPath>
</defs>
</svg>

<svg xmlns="http://www.w3.org/2000/svg" width="40" height="40" fill="none" viewBox="0 0 40 40"><g clip-path="url(#panwon_svg-a)"><path fill="#FCDCD3" d="M20 0c11.046 0 20 8.954 20 20s-8.954 20-20 20S0 31.046 0 20 8.954 0 20 0"/><path fill="#F04E23" d="M26 6a8 8 0 0 1 8 8v12a8 8 0 0 1-8 8H14a8 8 0 0 1-8-8V14a8 8 0 0 1 8-8z"/><path fill="#fff" d="m18.565 22.87 1.42 1.42-2.854 2.855-2.856-2.855 7.16-7.16-1.42-1.42 2.854-2.855 2.856 2.855zM10 20.013l2.855 2.855 7.16-7.159-2.856-2.855zm9.986 4.275 2.855 2.856L30 19.985l-2.855-2.854z"/></g><defs><clipPath id="panwon_svg-a"><path fill="#fff" d="M0 0h40v40H0z"/></clipPath></defs></svg>
